icons/ruler-fill.svg

<svg xmlns="http://www.w3.org/2000/svg" width="24" height="24" fill="none"><g clip-path="url(#a)"><g><path fill="#121212" d="M4.929 13.207L7.05 15.328L8.464 13.914L6.344 11.793L8.464 9.67201L11.293 12.5L12.707 11.086L9.88 8.25701L12 6.13601L14.121 8.25701L15.536 6.84301L13.414 4.72201L16.243 1.89301C16.4305 1.70554 16.6848 1.60022 16.95 1.60022C17.2152 1.60022 17.4695 1.70554 17.657 1.89301L22.607 6.84301C22.7945 7.03053 22.8998 7.28484 22.8998 7.55001C22.8998 7.81517 22.7945 8.06948 22.607 8.25701L7.757 23.107C7.56947 23.2945 7.31516 23.3998 7.05 23.3998C6.78483 23.3998 6.53053 23.2945 6.343 23.107L1.393 18.157C1.20553 17.9695 1.10021 17.7152 1.10021 17.45C1.10021 17.1848 1.20553 16.9305 1.393 16.743L4.929 13.207Z"/></g></g><defs><clipPath id="a"><rect width="24" height="24" fill="white"/></clipPath></defs></svg>

<svg width="24" height="24" fill="none" xmlns="http://www.w3.org/2000/svg"><g clip-path="url(#a)"><path d="m4.929 13.207 2.121 2.121 1.414-1.414-2.12-2.121 2.12-2.121 2.829 2.828 1.414-1.414L9.88 8.257 12 6.136l2.121 2.121 1.415-1.414-2.122-2.121 2.829-2.829a1 1 0 0 1 1.414 0l4.95 4.95a1 1 0 0 1 0 1.414l-14.85 14.85a1 1 0 0 1-1.414 0l-4.95-4.95a1 1 0 0 1 0-1.414l3.536-3.536Z" /></g><defs><clipPath id="a"><path fill="#fff" d="M0 0h24v24H0z"/></clipPath></defs></svg>
